X: 1
T: Bundle and Go
C: J-28
C: Irish
B: Ryan's Mammoth Collection (1882)
M: 6/8
Z: Transcribed to abc by Mary Lou Knack
R: jig
K: G
|:  "G"GBB BAG | "D"FAA AGF |  "G"GBB    BAG | "D"AGF "Em"E2F \
|   "G"GBB BAG | "D"FAA AGF |  "G"GAB "C"ABc | "D"AGF  "G"G3 :|
|: "Em"Eee efg | "D"fdB AGF | "Em"Eee    efg | "D"fdB     d2F \
|  "Em"Eee efg | "D"fdB AGF |  "G"GAB "C"ABc | "D"AGF  "G"G3 :|
%%sep 2 1 500
%%sep 2 1 500
